X:1
T:[ID 2-47]
T:[ID 2-47]
T:Bezeichnung standardisiert: Tantz Tantz In dieser Quelle auch als: Courant
T:Urheber unbekannt Datum in der hier transkribierten schriftlichen Quelle: 1767
C:Urheber unbekannt
C:Datum in der hier transkribierten schriftlichen Quelle: 1767
L:1/8
M:2/4
K:D
V:1 treble 
V:1
 DFAd | e2 c2 | dc/B/ EF | G/F/E/D/ C2 | DFAd | e2 c2 | dG/F/ E/F/G/E/ | F4 :: fd d/e/f/d/ | %9
 ec c/d/e/c/ | fd d/e/f/d/ | ec c2 | DFAd | e2 c2 | dG/F/ E/F/G/E/ | F4 :| %16

